X:1
T:Illumina oculos meos
T:Offertory 4th Sunday after Pentecost
T:Ivo de Vento (1545 - 1575) edited B. Marble
T:Illumina oculos meos Offertory 4th Sunday after Pentecost
T:Copyright © 2016 by The Choral Public Domain Library. Edition may be freely distributed, duplicated, performed or recorded.
T:Copyright © 2016 by The Choral Public Domain Library. Edition may be freely distributed, duplicated, performed or recorded.
T:Copyright © 2016 by The Choral Public Domain Library. Edition may be freely distributed, duplicated, performed or recorded.
T:Copyright © 2016 by The Choral Public Domain Library. Edition may be freely distributed, duplicated, performed or recorded.
T:Copyright © 2016 by The Choral Public Domain Library. Edition may be freely distributed, duplicated, performed or recorded.
T:Copyright © 2016 by The Choral Public Domain Library. Edition may be freely distributed, duplicated, performed or recorded.
T:Copyright © 2016 by The Choral Public Domain Library. Edition may be freely distributed, duplicated, performed or recorded.
T:Copyright © 2016 by The Choral Public Domain Library. Edition may be freely distributed, duplicated, performed or recorded.
C:Ivo de Vento
C:(1545 - 1575)
C:edited B. Marble
Z:Copyright © 2016 by The Choral Public Domain Library. Edition may be freely distributed, duplicated, performed or recorded.
%%score [ 1 2 3 4 ]
L:1/8
Q:1/4=52
M:2/1
K:Ab
V:1 treble nm="SOPRANO" snm="S."
V:2 treble nm="ALTO" snm="A."
V:3 treble-8 transpose=-12 nm="TENOR" snm="T."
V:4 bass nm="BASS" snm="B."
V:1
 B8 G8- | G4 A4 B8 | z4 (E2 F2 G2 A2 B4-) | B4 G4 (c6 B2 | A4) G4 F8 | z4 G4 E8- | E4 F4 G8 | %7
w: Il- lu-|* mi- na|o- * * * *|* cu- los _|_ me- os,|il- lu-|* mi- na|
 E8 E4 A4- | (A2 GF G8) F4- | F2 E2 E6 =DC D4 | E8 z8 | z8 z4 e4- | e4 c8 =d4 | e4 e8 c4 | %14
w: o- cu- los|_ _ _ _ me-||os,|il-|* lu- mi-|na o- cu-|
 c4 (_d6 c2 B4-) | (B2 =AG A4) B8 | G8 (E6 F2 | G4) F4 F4 F4- | F2 F2 A4 (_G4 F2 E2 | F8) F8 | %20
w: los me- * *|* * * * os,|il- lu- *|* mi- na o-|* cu- los me- * *|* os,|
 F8 =G8 | A4 A4 A6 A2 | B4 B4 B8 | A8 z4 c4 | c8 B4 B4 | B6 B2 A8 | A12 A4- | (A4 G2 F2 G8) | %28
w: ne un-|quam ob- dor- mi-|am in mor-|te, ne|un- quam ob-|dor- mi- am|in mor-||
 A4 A4 A4 G4 | F8 G8 | F12 c4- | c4 B4 c2 B2 B4- | B2 =AG A4 B4 B4- | B4 B4 _A8- | A4 A4 G8- | %35
w: te, ne quan- do|di- cat,|ne quan-|* do di- * *|* * * * cat in-|* i- mi-|* cus me-|
 G8 F8 | z16 | z4 d8 d4 | c16 | A8 z4 A4- | A2 F2 B6 A2 A4- | A2 GF G4 (A6 GF | E8) z8 | z8 z4 A4 | %44
w: * us,||in- i-|mi-|cus me-||* * * * us, _ _|_|prae-|
 A6 A2 G4 G4 | A4 A4 B4 A4 | z4 A4 A6 A2 | G4 F4 G8 | A4 B6 A2 A4- | A2 GF G4 (A6 GF | E8) z8 | %51
w: va- lu- i ad-|ver- sus e- um,|prae- va- lu-|i ad- ver-|sus e- * *|* * * * um, _ _|_|
 z8 z4 A4 | A6 A2 G4 G4 | A4 A4 B4 A4 | z4 A4 A6 A2 | G4 F4 G8 | A4 B6 A2 A4- | A2 GF G4 A4 A4 | %58
w: prae-|va- lu- i ad-|ver- sus e- um,|prae- va- lu-|i ad- ver-|sus e- * *|* * * * um, ad-|
 F8 D4 F4- | F2 E2 E6 =DC D4 | E16- | E16- | E16 |] %63
w: ver- sus e-||um.|_||
V:2
 z16 | z8 E8 | C12 =D4 | E8 z4 (A,2 B,2 | C2 =D2 E8) D4 | C4 B,4 C8 | z8 z4 E4 | C12 =D4 | %8
w: |Il-|lu- mi-|na o- *|* * * cu-|los me- os,|il-|lu- mi-|
 E8 _D6 D2 | C4 A,4 B,4 B,4- | B,4 G,8 A,4 | G,4 B,6 B,2 B,4 | (3C4 =D4 E4 F8 | G8 A4 E4 | %14
w: na o- cu-|los me- os, il-|* lu- mi-|na o- cu- los|me- * * os,|il- lu- mi-|
 F4 F6 F2 F4 | (F6 E2 =D2 C2 D4) | E4 B,4 (C3 B,) E4- | E4 _D4 C4 C4- | C2 C2 F4 E2 D2 D2 CB, | %19
w: na o- cu- los|me- * * * *|os, il- lu- * mi-|* mi- na o-|* cu- los me- * * * *|
 C8 =D4 D4 | =D4 D4 E4 E4- | E2 E2 E4 F4 F4- | (F4 E2 D2 E8) | F4 F4 A8 | A4 E4 _G8- | %25
w: * os, ne|un- quam ob- dor-|* mi- am in mor-||te, ne un-|quam ob- dor-|
 G4 _G4 F4 F4 | (F6 C2 D8) | E8 z4 E4 | F8 F4 E4- | (E2 =DC D4) E4 E4 | D2 B,2 D6 C2 A4- | %31
w: * mi- am in|mor- * *|te, ne|quan- do di-|* * * * cat, ne|quan- * * * *|
 A4 F4 _G8 | F4 F8 F4 | F12 F4 | E8 E8 | B,8 D4 F4- | F4 F4 E4 E4 | (D8 B,8) | E4 (A,6 B,2 C2 D2 | %39
w: * do di-|cat i- ni-|mi- cus|me- us,|me- us, in-|* i- mi- cus|me- *|us, in- * * *|
 E4) E4 (A6 G2 | F12) D4 | E8 C8 | z4 E4 E6 E2 | D4 E4 F2 E2 E4- | E4 =D4 E8 | F4 F4 F6 F2 | %46
w: * i- mi- *|* cus|me- us,|prae- va- lu-|i ad- ver- * *|* sus e-|um, prae- va- lu-|
 E4 F8 E4- | E4 =D4 (E6 _D2) | C4 B,4 C4 A,4 | E8 E8 | z4 E4 E6 E2 | D4 E4 F2 E2 E4- | E4 =D4 E8 | %53
w: i ad- ver-|* sus e- *|um, ad- ver- sus|e- um,|prae- va- lu-|i ad- ver- * *|* sus e-|
 F4 F4 F6 F2 | E4 F8 E4- | E4 =D4 (E6 _D2) | C4 B,4 C4 A,4 | E8 E4 E4 | D4 A,4 B,4 C4 | %59
w: um, prae- va- lu-|i ad- ver-|* sus e- *|um, ad- ver- sus|e- um, e-|um, ad- ver- sus|
 (C4 B,2 A,2 B,8) | B,4 G,4 B,4 A,4- | (A,2 G,F, G,4) C8 | B,16 |] %63
w: e- * * *|um, ad- ver- sus|_ _ _ _ e-|um.|
V:3
 z16 | z16 | z16 | z16 | z8 B8 | G12 A4 | G4 B8 B4 | (A6 B2 c4) A4 | B4 B6 B2 B4 | (G4 F2 E2 F8) | %10
w: ||||Il-|lu- mi-|na o- cu-|los _ _ me-|os, o- cu- los|me- * * *|
 G4 B4 E8- | E4 F4 G8 | z4 A8 B4- | B4 B4 c4 A4- | A4 A4 B4 d4 | c8 z4 B4- | B4 G8 =A4 | B8 F6 F2 | %18
w: os, il- lu-|* mi- na|il- lu-|* mi- na o-|* cu- los me-|os, il-|* lu- mi-|na, o- cu-|
 A4 c6 B2 B4- | B2 =AG A4 B8 | z4 B4 B8 | c4 c8 d4- | d4 B4 B4 B4 | d8 c4 A4 | e8 e4 e4- | %25
w: los me- * *|* * * * os,|ne un-|quam ob- dor-|* mi- am in|mor- te, ne|un- quam ob-|
 e4 d8 d4 | d4 c4 (A6 B2 | c8) B8 | d8 d4 B4 | A8 B4 E4 | (B6 F2 A6 B2 | c4) =d4 (e6 _d2 | c8) d8 | %33
w: * dor- mi-|am in mor- *|* te,|ne quan- do|di- cat, ne|quan- * * *|* do di- *|* cat|
 d12 d4 | c8 c8 | z4 B8 B4 | A4 F4 (G2 E2 A4-) | (A4 G2 F2 G8) | A4 e8 e4 | c16 | d4 (d6 c2 B2 A2 | %41
w: i- ni-|mi- cus|in- i-|mi- cus me- * *||us, in- i-|mi-|cus me- * * *|
 B8) A4 c4 | c6 c2 B4 c4 | A4 B4 (c6 B2 | A8) B8 | z4 d4 d6 d2 | c4 d4 d4 A4 | B8 E4 E4 | e12 d4 | %49
w: * us, prae-|va- lu- i ad-|ver- sus e- *|* um,|prae- va- lu-|i ad- ver- sus|e- um, ad-|ver- sus|
 (c2 BA B4) c4 c4 | c6 c2 B4 c4 | A4 B4 (c6 B2 | A8) B8 | z4 d4 d6 d2 | c4 d4 d4 A4 | B8 E4 E4 | %56
w: e- * * * um, prae-|va- lu- i ad-|ver- sus e- *|* um,|prae- va- lu-|i ad- ver- sus|e- um, ad-|
 e12 d4 | c4 B4 c6 B2 | A2 G2 F6 G2 A4- | A2 G2 G2 FE F8 | G4 B8 c4- | c4 B4 A8 | G16 |] %63
w: ver- sus|e- um, e- *|||um, ad- ver-|* sus e-|um.|
V:4
 z16 | z16 | z16 | z16 | z16 | E,8 C,8- | C,4 =D,4 E,8 | z4 A,8 F,4 | (E,6 _D,C, B,,8) | C,8 B,,8 | %10
w: |||||Il- lu-|* mi- na|o- cu-|los _ _ _|me- os,|
 E,8 C,8- | C,4 =D,4 E,8 | (A,6 G,2 F,4) B,,4 | E,8 A,6 G,2 | F,2 E,2 D,2 C,2 B,,8 | F,8 B,,8 | %16
w: il- lu-|* mi- na|o- * * cu-|los me- *||os, il-|
 (E,6 D,2 C,4) C,4 | B,,4 B,6 B,2 A,4 | (F,8 _G,8) | F,8 z4 B,4 | B,8 E,4 E,4 | A,6 A,2 F,4 D,4 | %22
w: lu- * * mi-|na o- cu- los|me- *|os, ne|un- quam ob-|dor- mi- am in|
 _G,16 | F,8 F,8 | A,8 E,4 E,4 | _G,6 G,2 D,4 D,4 | F,16 | E,16 | z4 D,4 D,4 E,4 | F,8 E,8 | %30
w: mor-|te, ne|un- quam ob-|dor- mi- am in|mor-|te,|ne quan- do|di- cat,|
 z4 B,,4 (F,6 G,2 | A,4) B,4 (E,8 | F,8) B,,8- | B,,8 z8 | z8 E,8- | E,4 E,4 D,8 | %36
w: ne quan- *|* do di-|* cat,|_|in-|* i- mi-|
 D,8 (C,6 B,,A,, | B,,16) | A,,8 A,8- | A,4 A,4 F,4 F,4 | (D,8 F,8) | E,8 z4 A,4 | %42
w: cus me- * *||us, in-|* i- mi- cus|me- *|us, prae-|
 A,6 A,2 G,4 A,4 | F,4 G,4 (A,6 G,2 | F,8 E,8) | D,8 z8 | z16 | z4 B,4 B,6 B,2 | A,4 G,4 A,4 F,4 | %49
w: va- lu- i ad-|ver- sus e- *|* ,|um,||prae- va- lu-|i ad- ver- sus|
 E,8 A,,4 A,4 | A,6 A,2 G,4 A,4 | F,4 G,4 (A,6 G,2 | F,8 E,8) | D,8 z8 | z16 | z4 B,4 B,6 B,2 | %56
w: e- um, prae-|va- lu- i ad-|ver- sus e- *||um,||prae- va- lu-|
 A,4 G,4 A,4 F,4 | E,8 A,,4 A,,4 | (D,6 C,2 B,,4) A,,4 | C,8 B,,4 B,,4 | (E,6 F,2 G,4) A,4 | %61
w: i ad- ver- sus|e- um, ad-|ver- * * sus|e- um, ad-|ver- * * sus|
 (E,8 A,,8) | E,16 |] %63
w: e- *|um.|

